X:1
T:The Gate Ajar for Me
T:The Gate Ajar for Me
T:Silas J. Vail, c.1872
T:Lydia O. Baxter, c.1872
T:PUBLIC DOMAIN
C:Silas J. Vail, c.1872
Z:Lydia O. Baxter, c.1872
Z:PUBLIC DOMAIN
%%score ( 1 2 ) ( 3 4 )
L:1/8
Q:3/8=55
M:6/8
K:C
V:1 treble nm="Treble"
V:2 treble 
V:3 bass nm="Bass"
V:4 bass 
V:1
 [EG] | [EG]2 [CE] [EG]2 [Gc] | [Ac]2 [FA] [EG]2 [CE] | [FA]2 [EG] [CE]2 C | [CE]3 [B,D]2 | [DG] | %6
w: 1.~There|is a gate that|stands a- jar, And|through its por- tals|gleam- ing|A|
w: 2.~That|gate a- jar stands|free for all Who|seek through it sal-|va- tion;|The|
w: 3.~Press|on- ward, then, though|foes may frown, While|mer- cy’s gate is|o- pen;|Ac-|
w: 4.~Be-|yond the riv- er’s|brink we’ll lay The|cross that here is|giv- en,|And|
 [EG]2 [CE] [EG]2 [Gc] | [Ac]2 [FA] [EG]2 [Ec] | [Ge]2 [Gc] [Ge]2 [Fd] | [Fd]3 [Ec]2 || %10
w: ra- diance from the|cross a- far, The|Sav- ior’s love re-|veal- ing.|
w: rich and poor, the|great and small, Of|eve- ry tribe and|na- tion.|
w: cept the cross, and|win the crown, Love’s|ev- er- last- ing|to- ken.|
w: bear the crown of|life a- way, And|love Him more in|Heav- en.|
"^Refrain" [Ec] | [Fd]2 [E^c] [Fd]2 [Ge] | [Ec]2 [EA] [Ec]2 [FA] | [EG]2 [EG] [FA]2 [EG] | %14
w: O|depth of mer- cy!|Can it be That|gate was left a-|
w: ||||
w: ||||
w: ||||
 [CE]2 C [CE]2 | [EG] | [EG]3 [EG]2 [Ec] | (([FA]3 [Ac]2)) [Ec] | [Ge]2 [Gc] [Ge]2 [Fd] | %19
w: jar for me?|For|me? _ For|me? _ Was|left a- jar for|
w: |||||
w: |||||
w: |||||
 [Ec]3 [Ec]2 |] %20
w: me! *|
w: |
w: |
w: |
V:2
 x | x6 | x6 | z3 z2 C | x5 | x | x6 | x6 | x6 | x5 || x | x6 | x6 | x6 | z2 C z2 | x | x6 | x6 | %18
 x6 | x5 |] %20
V:3
 [C,C] | [C,C]2 [C,G,] [C,C]2 [E,C] | [F,C]2 [F,C] [C,C]2 [C,G,] | [C,C]2 [C,C] [C,G,]2 [E,G,] | %4
w: ||||
 G,3 G,2 | [G,,B,] | [C,C]2 [C,G,] [C,C]2 [E,C] | [F,C]2 [F,C] [C,C]2 [C,C] | %8
w: ||||
 [C,C]2 [E,C] [G,C]2 [G,,G,] | [C,G,]3 [C,G,]2 || [C,G,] | G,2 G, G,2 [G,C] | %12
w: ||||
 [A,C]2 [A,C] [A,C]2 [F,C] | [C,C]2 [C,C] [C,C]2 [C,C] | [C,G,]2 [E,G,] G,2 | z | %16
w: ||||
 z2 [C,C] [C,C]2 z | z2 [F,C] [F,C]2 [C,C] | [C,C]2 [E,C] [G,C]2 [G,,G,] | [C,G,]3 [C,G,]2 |] %20
w: For me!|For me! *|||
V:4
 x | x6 | x6 | x6 | G,3 G,2 | z | x6 | x6 | x6 | x5 || x | G,2 G, G,2 z | x6 | x6 | z3 G,2 | z | %16
 x6 | x6 | x6 | x5 |] %20

